dist/assets/img/favorites/plus.svg

<svg width="20" height="20" viewBox="0 0 20 20" fill="none" xmlns="http://www.w3.org/2000/svg">
<path d="M20 9.52381H10.4762V0H9.52381V9.52381H0V10.4762H9.52381V20H10.4762V10.4762H20V9.52381Z" fill="black"/>
</svg>

<svg width="20" height="20" fill="none" xmlns="http://www.w3.org/2000/svg"><path d="M20 9.524h-9.524V0h-.952v9.524H0v.952h9.524V20h.952v-9.524H20v-.952z" fill="#000"/></svg>
